X: 315
T: JOHN WHITE
T: Sean Ban
B: O'Neill's 315
M: 3/4
L: 1/8
Z: 1999 by John Chambers <jc@trillian.mit.edu>
N: "With expression"
N: "Collected by Mrs.Cantwell"
K:A
(EG) \
| A2c2A2 | (GAcded) | dcA2(EG) | G4(EG) |
| A2c2A2 | (GAcded) | dcA2A2 | A4 ||
|| (cd) \
| efg2f2 | e2c2d2 | e2A2(EG) | G4(EG) |
| A2c2A2 | (GAcded) | dcA2A2 | A4 ||


